!!!!SEGMENT: pl-cz--ii-246--002-001_anonim--partita-es-allegro.krn
!!!cenid: 17xx:2186
!!!COM: Anonim
!!!COM-rismID: pe30004985
!!!CDT:
!!!CNT:
!!!OPR: Partita Es
!!!OTL: Allegro
!!!OMV: 001
!!!PDT:
!!!AGN: Secular
!!!YEC: Copyright 2022 Narodowy Instytut Fryderyka Chopina (https://polishscores.org)
!!!YEM: License CC-BY-4.0 (https://creativecommons.org/licenses/by/4.0)
!!!SMS-siglum: PL-CZ
!!!SMS-shelfmark: II-246
!!!SMS-shelfwork: 002-001 M
!!!SMS-variant:
!!!SMS-altvar:
!!!NIFC-rismSourceID: 1001012550
!!!NIFC-rismChildID: 1001012552
!!!NIFC-islandoraID: pl-cz:5882
!!!URL-pdf-islandora: https://repozytorium.nifc.pl/islandora/object/pl-cz%3A5882/datastream/PDF/view
!!!URL-scan: https://polish.musicsources.pl/pl/lokalizacje/galeria/rekopisy/795 @EN{Scan on Polish Music Sources Website} @PL{Skany w portalu Dziedzictwo Muzyki Polskiej w otwartym dostępie}
!!!IIIF:
!!!ONB-nifc: UWAGA: w źródle 2 Partity Es (początkowy nr 001 lub 002). Części 1. Partity: 1. Allegro, 2. Finale. Części 2. Partity: 1. Allegro, 2. Allegro moderato, 3. Finale
!!!AIN: 2 clars 2 empty 1 fagot 2 picco
!!!key:
**kern	**dynam	**kern	**dynam	**kern	**kern	**kern	**dynam	**kern	**kern
*part7	*	*part6	*	*part5	*part4	*part3	*	*part2	*part1
*staff7	*	*staff6	*	*staff5	*staff4	*staff3	*	*staff2	*staff1
*Iempty	*	*Iempty	*	*Ifagot	*Iclars	*Iclars	*	*Ipicco	*Ipicco
*I"Cornu Secundo	*	*I"Cornu Primo	*	*I"Fagotto	*I"Clarinetto Secundo	*I"Clarinetto Primo	*	*I"Picolo Secundo	*I"Picolo Primo
*I'cor 2	*	*I'cor 1	*	*I'fag	*I'cl 2	*I'cl 1	*	*I'fl.picc 2	*I'fl.picc 1
*>[A,A,B,B,C]	*	*>[A,A,B,B,C]	*	*>[A,A,B,B,C]	*>[A,A,B,B,C]	*>[A,A,B,B,C]	*	*>[A,A,B,B,C]	*>[A,A,B,B,C]
*clefG2	*	*clefG2	*	*clefF4	*clefG2	*clefG2	*	*clefG2	*clefG2
*ITrd5c9	*	*ITrd5c9	*	*	*ITrd1c2	*ITrd1c2	*	*ITrd0c0	*ITrd0c0
*k[b-e-a-]	*	*k[b-e-a-]	*	*k[b-e-a-]	*k[b-e-a-]	*k[b-e-a-]	*	*k[b-e-a-]	*k[b-e-a-]
*E-:	*	*E-:	*	*E-:	*E-:	*E-:	*	*E-:	*E-:
*M4/4	*	*M4/4	*	*M4/4	*M4/4	*M4/4	*	*M4/4	*M4/4
*met(c)	*	*met(c)	*	*met(c)	*met(c)	*met(c)	*	*met(c)	*met(c)
=1	=1	=1	=1	=1	=1	=1	=1	=1	=1
*all\right	*	*all\right	*	*all\right	*all\right	*all\right	*	*	*
*>A	*	*>A	*	*>A	*>A	*>A	*	*>A	*>A
!	!	!LO:TX:t=P:problem=all\right&colon; global	!	!	!	!LO:TX:t=P:problem=all\right&colon; global	!	!LO:TX:t=P:problem=brak partii, źródło wybrakowane	!LO:TX:t=P:problem=brak partii, źródło wybrakowane
!LO:TX:t=Allegro	!	!LO:TX:i:t=Allegro	!	!LO:TX:i:t=Allegro	!LO:TX:i:t=Allegro	!LO:TX:t=Allegro	!	!	!
8G/	.	8e-\	.	8E-\	8g/	8ee-\	.	1ryy	1ryy
8r	.	8r	.	8r	8r	8r	.	.	.
8G/	.	8e-\	.	8E-\	8g/	8b-\	.	.	.
8r	.	8r	.	8r	8r	8r	.	.	.
8G/	.	8e-\	.	8E-\	8g/	8ee-\	.	.	.
8r	.	8r	.	8r	8r	8r	.	.	.
8G/	.	8e-\	.	8E-\	8ee-\	8gg\	.	.	.
8r	.	8r	.	8r	8r	8r	.	.	.
=2	=2	=2	=2	=2	=2	=2	=2	=2	=2
*	*	*2\right	*	*	*	*	*	*	*
!	!LO:DY:a:rj	!	!	!	!	!	!	!	!
2B-/	f	2f\	.	2BB-/	8dd\L	8.ff\L	f	1ryy	1ryy
.	.	.	.	.	8b-\	.	.	.	.
.	.	.	.	.	.	16dd\K	.	.	.
.	.	.	.	.	8dd\	8.ff\	.	.	.
.	.	.	.	.	8ff\J	.	.	.	.
.	.	.	.	.	.	16aa-\Jk	.	.	.
4e-\	.	4g\	.	4E-\	4ee-\	4gg\	.	.	.
4r	.	4r	.	4r	4r	4r	.	.	.
=3	=3	=3	=3	=3	=3	=3	=3	=3	=3
8G/	.	8e-\	.	8E-\	8g/	8ee-\	.	1ryy	1ryy
8r	.	8r	.	8r	8r	8r	.	.	.
8G/	.	8e-\	.	8E-\	8g/	8b-\	.	.	.
8r	.	8r	.	8r	8r	8r	.	.	.
8G/	.	8e-\	.	8E-\	8g/	8ee-\	.	.	.
8r	.	8r	.	8r	8r	8r	.	.	.
8G/	.	8e-\	.	8E-\	8ee-\	8gg\	.	.	.
8r	.	8r	.	8r	8r	8r	.	.	.
=4	=4	=4	=4	=4	=4	=4	=4	=4	=4
!	!LO:DY:a	!	!LO:DY:a:rj	!	!	!	!LO:DY:rj	!	!
2B-/	f	2f\	f	2BB-/	8.dd\L	8.ff\L	f	1ryy	1ryy
.	.	.	.	.	16b-\	16dd\K	.	.	.
.	.	.	.	.	8.dd\	8.ff\	.	.	.
.	.	.	.	.	16ff\J	16aa-\Jk	.	.	.
4e-\	.	4g\	.	4E-\	4ee-\	4gg\	.	.	.
4r	.	4r	.	4r	4r	4r	.	.	.
=5	=5	=5	=5	=5	=5	=5	=5	=5	=5
!LO:TX:a:t=2.	!	!LO:TX:a:t=2.	!	!LO:N:vis=8	!	!	!	!	!
0r	.	0r	.	16G\LL	4.b-\	4.bb-\	p	1ryy	1ryy
!	!	!	!	!LO:N:vis=8	!	!	!	!	!
.	.	.	.	16F\	.	.	.	.	.
!	!	!	!	!LO:N:vis=8	!	!	!	!	!
.	.	.	.	16E-\	.	.	.	.	.
!	!	!	!	!LO:N:vis=8	!	!	!	!	!
.	.	.	.	16F\JJ	.	.	.	.	.
.	.	.	.	8G\L	.	.	.	.	.
.	.	.	.	8A-\J	8cc\	8ccc\	.	.	.
.	.	.	.	8G\L	8b-/L	8bb-\L	.	.	.
.	.	.	.	8F\	8a-/	8aa-\	.	.	.
.	.	.	.	8E-\	8g/	8gg\	.	.	.
.	.	.	.	8D\J	8f/J	8ff\J	.	.	.
!	!	!	!	!LO:LB:g=original	!	!	!	!	!
=6	=6	=6	=6	=6	=6	=6	=6	=6	=6
.	.	.	.	8E-/L	8e-/L	8ee-\L	.	1ryy	1ryy
.	.	.	.	8BB-/	8d/	8dd\	.	.	.
.	.	.	.	8GG/	8e-/	8ee-\	.	.	.
.	.	.	.	8EE-/J	8g/J	8gg\J	.	.	.
!	!	!	!	!	!	!LO:LB:g=original	!	!	!
.	.	.	.	4BB-/	8f/L	8ff\L	.	.	.
.	.	.	.	.	8d/J	8dd\J	.	.	.
.	.	.	.	4B-\	4B-/	4b-\	.	.	.
!	!	!	!	!	!LO:LB:g=original	!	!	!	!
=7	=7	=7	=7	=7	=7	=7	=7	=7	=7
!	!LO:DY:a	!	!	!	!	!	!LO:DY:rj	!	!
2E-/	f	2e-\	.	8E-\L	4.g/	4.b-\	f	1ryy	1ryy
.	.	.	.	8D\	.	.	.	.	.
.	.	.	.	8E-\	.	.	.	.	.
.	.	.	.	8D\J	8a-/	8cc\	.	.	.
4E-/	.	4e-\	.	4E-\	8g/L	8b-\L	.	.	.
.	.	.	.	.	8a-/	8ee-\	.	.	.
4r	.	4r	.	4r	8b-/	8dd\	.	.	.
.	.	.	.	.	8a-/J	8cc\J	.	.	.
=8	=8	=8	=8	=8	=8	=8	=8	=8	=8
!	!	!	!	!LO:TX:t=P:problem=mixed beam	!	!	!	!	!
(8g\L	.	(8b-\L	.	8B-\L	8g/L	8b-/L	.	1ryy	1ryy
8f\	.	8a-\)	.	8B-\	8f/	8a-/	.	.	.
8e-'\)	.	8g'\	.	8BB-/	8e-/	8g/	.	.	.
8B-'\J	.	8f'\J	.	8BB-/J	8d/J	8f/	.	.	.
!	!	!	!	!LO:TX:t=P:problem=mixed beam	!	!LO:N:vis=8	!	!	!
4G/	.	4e-\	.	8E-\L	4e-/	8e-/J	.	.	.
.	.	.	.	8EE-/	.	8ryy	.	.	.
4r	.	4r	.	8GG/	4r	4r	.	.	.
.	.	.	.	8BB-/J	.	.	.	.	.
=9:|!|:	=9:|!|:	=9:|!|:	=9:|!|:	=9:|!|:	=9:|!|:	=9:|!|:	=9:|!|:	=9:|!|:	=9:|!|:
*>B	*	*>B	*	*>B	*>B	*>B	*	*>B	*>B
!LO:TX:a:t=4	!	!LO:TX:a:t=4	!	!	!	!	!	!	!
00r	.	00r	.	4E-\	8ee-\L	8gg\L	.	1ryy	1ryy
.	.	.	.	.	8ee-\	8gg\	.	.	.
.	.	.	.	4r	8ee-\	8gg\	.	.	.
.	.	.	.	.	8dd\J	8ff\J	.	.	.
.	.	.	.	2r	8cc\L	8ee-\L	.	.	.
.	.	.	.	.	8cc\	8ee-\	.	.	.
.	.	.	.	.	8cc\	8ee-\	.	.	.
.	.	.	.	.	8b-\J	8dd\J	.	.	.
=10	=10	=10	=10	=10	=10	=10	=10	=10	=10
.	.	.	.	4F\	8a\L	8cc\L	.	1ryy	1ryy
.	.	.	.	.	8a\	8cc\	.	.	.
.	.	.	.	4r	8a\	8cc\	.	.	.
.	.	.	.	.	8b-\J	8dd\J	.	.	.
.	.	.	.	2r	8cc\L	8ee-\L	.	.	.
.	.	.	.	.	8cc\	8ee-\	.	.	.
.	.	.	.	.	8b-\	8dd\	.	.	.
.	.	.	.	.	8cc\J	8ee-\J	.	.	.
=11	=11	=11	=11	=11	=11	=11	=11	=11	=11
.	.	.	.	4BB-/	8b-\L	8dd\L	.	1ryy	1ryy
.	.	.	.	.	8b-\	8dd\	.	.	.
.	.	.	.	4r	8b-\	8dd\	.	.	.
.	.	.	.	.	8cc\J	8ee-\J	.	.	.
.	.	.	.	2r	8dd\L	8ff\L	.	.	.
.	.	.	.	.	8b-\	8dd\	.	.	.
.	.	.	.	.	8dd\	8ff\	.	.	.
.	.	.	.	.	8b-\J	8dd\J	.	.	.
!	!	!	!	!	!	!LO:LB:g=original	!	!	!
=12	=12	=12	=12	=12	=12	=12	=12	=12	=12
.	.	.	.	4FF/	8r	8r	.	1ryy	1ryy
.	.	.	.	.	8a\L	8cc\L	.	.	.
.	.	.	.	4r	8a\	8cc\	.	.	.
.	.	.	.	.	8b-\J	8dd\J	.	.	.
!	!	!	!	!	!LO:LB:g=original	!	!	!	!
.	.	.	.	2r	8cc\L	8ee-\L	.	.	.
.	.	.	.	.	8a\	8cc\	.	.	.
.	.	.	.	.	8cc\	8ee-\	.	.	.
.	.	.	.	.	8a\J	8cc\J	.	.	.
!LO:LB:g=original	!	!	!	!	!	!	!	!	!
=13	=13	=13	=13	=13	=13	=13	=13	=13	=13
4B-/	.	4b-\	.	4BB-/	4dd\	4ff\	.	1ryy	1ryy
4B-/	.	4b-\	.	4BB-/	4dd\	4ff\	.	.	.
2r;	.	2r;	.	2r;	2r;	2r;	.	.	.
!	!	!LO:LB:g=original	!	!	!	!	!	!	!
=14	=14	=14	=14	=14	=14	=14	=14	=14	=14
!LO:TX:a:t=2.	!	!LO:TX:a:t=2.	!	!LO:TX:a:t=2.	!LO:TX:a:t=1.	!	!	!	!
0r	.	0r	.	0r	1r	8b-\L	.	1ryy	1ryy
.	.	.	.	.	.	8b-\	.	.	.
.	.	.	.	.	.	8b-\	.	.	.
.	.	.	.	.	.	8a\J	.	.	.
.	.	.	.	.	.	8cc\L	.	.	.
.	.	.	.	.	.	8cc\	.	.	.
.	.	.	.	.	.	8cc\	.	.	.
.	.	.	.	.	.	8b-\J	.	.	.
=15	=15	=15	=15	=15	=15	=15	=15	=15	=15
.	.	.	.	.	8b-\L	8dd\L	.	1ryy	1ryy
.	.	.	.	.	8b-\	8dd\	.	.	.
.	.	.	.	.	8b-\	8dd\	.	.	.
.	.	.	.	.	8a\J	8cc\J	.	.	.
.	.	.	.	.	8cc\L	8ee-\L	.	.	.
.	.	.	.	.	8cc\	8ee-\	.	.	.
.	.	.	.	.	8cc\	8ee-\	.	.	.
.	.	.	.	.	8b-\J	8dd\J	.	.	.
!	!	!	!	!LO:LB:g=original	!	!	!	!	!
=16	=16	=16	=16	=16	=16	=16	=16	=16	=16
!	!	!	!	!LO:TX:t=P:problem=strona urwana	!	!	!	!	!
4B-/	.	4b-\	.	4ryy	8dd\L	8ff\L	.	1ryy	1ryy
.	.	.	.	.	8dd\J	8bb-\J	.	.	.
4r	.	4r	.	8ryy	16ff\LL	16aa\LL	.	.	.
.	.	.	.	.	16ee-\	16gg\	.	.	.
.	.	.	.	8E-\	16dd\	16ff\	.	.	.
.	.	.	.	.	16cc\JJ	16ee-\JJ	.	.	.
!	!	!	!	!LO:TX:t=P:problem=mixed beam	!	!	!	!	!
4B-/	.	4b-\	.	8F\L	4b-\	4dd\	.	.	.
.	.	.	.	8F\	.	.	.	.	.
4e-\	.	4aX\	.	8FF/	4a\	4cc\	.	.	.
.	.	.	.	8FF/J	.	.	.	.	.
=17	=17	=17	=17	=17	=17	=17	=17	=17	=17
!LO:TX:a:t=2.	!	!LO:TX:a:t=2	!	!LO:TX:a:t=2	!LO:TX:a:t=1.	!	!	!	!
0r	.	0r	.	0r	1r	8b-\L	.	1ryy	1ryy
.	.	.	.	.	.	8b-\	.	.	.
.	.	.	.	.	.	8b-\	.	.	.
!	!	!	!	!	!	!LO:SIC:v:s=8a\J	!	!	!
.	.	.	.	.	.	8a-\J	.	.	.
!	!	!	!	!	!	!LO:PB:g=original	!	!	!
.	.	.	.	.	.	8cc\L	.	.	.
.	.	.	.	.	.	8cc\	.	.	.
.	.	.	.	.	.	8cc\	.	.	.
.	.	.	.	.	.	8b-\J	.	.	.
=18	=18	=18	=18	=18	=18	=18	=18	=18	=18
.	.	.	.	.	8b-\L	8dd\L	.	1ryy	1ryy
.	.	.	.	.	8b-\	8dd\	.	.	.
.	.	.	.	.	8b-\	8dd\	.	.	.
.	.	.	.	.	8a\J	8cc\J	.	.	.
.	.	.	.	.	8cc\L	8ee-\L	.	.	.
.	.	.	.	.	8cc\	8ee-\	.	.	.
.	.	.	.	.	8cc\	8ee-\	.	.	.
.	.	.	.	.	8b-\J	8dd\J	.	.	.
=19	=19	=19	=19	=19	=19	=19	=19	=19	=19
4B-/	.	4b-\	.	8BB-/L	8dd\L	8ff\L	.	1ryy	1ryy
.	.	.	.	8BB-/	8dd\J	8bb-\J	.	.	.
4r	.	4r	.	8E-/	16ff\LL	16aa\LL	.	.	.
.	.	.	.	.	16ee-\	16gg\	.	.	.
.	.	.	.	8E-/J	16dd\	16ff\	.	.	.
.	.	.	.	.	16cc\JJ	16ee-\JJ	.	.	.
!	!	!	!	!LO:TX:t=P:problem=mixed beam	!LO:LB:g=original	!	!	!	!
4B-/	.	4b-\	.	8F\L	4b-\	4dd\	.	.	.
.	.	.	.	8F\	.	.	.	.	.
!	!	!	!	!	!LO:SIC:v:s=4a\	!	!	!	!
4f\	.	4aX\	.	8FF/	4a-\	4cc\	.	.	.
.	.	.	.	8FF/J	.	.	.	.	.
=20	=20	=20	=20	=20	=20	=20	=20	=20	=20
4B-/	.	4b-\	.	4BB-/	4d/	4b-\	.	1ryy	1ryy
4r	.	4r	.	4r	4r	4r	.	.	.
*	*	*	*	*	*	*2\right	*	*	*
2r;	.	2r;	.	2r;	2r	2bb-;\	.	.	.
=21	=21	=21	=21	=21	=21	=21	=21	=21	=21
!	!LO:DY:a	!	!	!	!	!LO:TX:a:t=f	!	!	!
8G/	p	8e-\	.	8E-\	8g/	8ee-\	.	1ryy	1ryy
8r	.	8r	.	8r	8r	8r	.	.	.
8G/	.	8e-\	.	8E-\	8g/	8b-\	.	.	.
8r	.	8r	.	8r	8r	8r	.	.	.
8G/	.	8e-\	.	8E-\	8g/	8ee-\	.	.	.
8r	.	8r	.	8r	8r	8r	.	.	.
8G/	.	8e-\	.	8E-\	8ee-\	8gg\	.	.	.
8r	.	8r	.	8r	8r	8r	.	.	.
=22	=22	=22	=22	=22	=22	=22	=22	=22	=22
!	!LO:DY:a	!	!LO:DY:a	!	!	!	!	!	!
2B-/	f	2f\	f	2BB-/	8.dd\L	8.ff\L	.	1ryy	1ryy
.	.	.	.	.	16b-\	16dd\K	.	.	.
.	.	.	.	.	8.dd\	8ff\	.	.	.
.	.	.	.	.	.	8aa-\J	.	.	.
.	.	.	.	.	16ff\Jk	.	.	.	.
4e-\	.	4g\	.	4E-\	4ee-\	4gg\	.	.	.
4r	.	4r	.	4r	4r	4r	.	.	.
=23	=23	=23	=23	=23	=23	=23	=23	=23	=23
!	!	!	!	!	!LO:TX:t=P:problem=powtórzone takty 21-22	!	!	!	!
8G/	.	8e-\	.	8E-\	8g/yy	8ee-\	.	1ryy	1ryy
8r	.	8r	.	8r	8ryy	8r	.	.	.
8G/	.	8e-\	.	8E-\	8g/yy	8b-\	.	.	.
8r	.	8r	.	8r	8ryy	8r	.	.	.
8G/	.	8e-\	.	8E-\	8g/yy	8ee-\	.	.	.
8r	.	8r	.	8r	8ryy	8r	.	.	.
8G/	.	8e-\	.	8E-\	8ee-\yy	8gg\	.	.	.
8r	.	8r	.	8r	8ryy	8r	.	.	.
!	!	!	!	!LO:LB:g=original	!	!LO:LB:g=original	!	!	!
=24	=24	=24	=24	=24	=24	=24	=24	=24	=24
!	!LO:DY:a	!	!	!	!	!	!	!	!
2B-/	f	2f\	.	2BB-/	8.dd\Lyy	8.ff\L	.	1ryy	1ryy
.	.	.	.	.	16b-\yy	16dd\K	.	.	.
.	.	.	.	.	8.dd\yy	8ff\	.	.	.
.	.	.	.	.	.	8aa-\J	.	.	.
.	.	.	.	.	16ff\Jkyy	.	.	.	.
4e-\	.	4g\	.	4E-\	4ee-\yy	4gg\	.	.	.
!	!	!	!	!	!LO:TX:t=P:problem=wykreślony takt	!	!	!	!
4r	.	4r	.	4r	4ryy	4r	.	.	.
!	!	!LO:LB:g=original	!	!	!	!	!	!	!
=25	=25	=25	=25	=25	=25	=25	=25	=25	=25
!LO:TX:a:t=2.	!	!LO:TX:a:t=2	!	!LO:N:vis=8	!	!LO:N:vis=8.	!	!	!
0r	.	0r	.	16G\LL	4.b-\	4.bb-\	.	1ryy	1ryy
!	!	!	!	!LO:N:vis=8	!	!	!	!	!
.	.	.	.	16F\	.	.	.	.	.
!	!	!	!	!LO:N:vis=8	!	!	!	!	!
.	.	.	.	16E-\	.	.	.	.	.
!	!	!	!	!LO:N:vis=8	!	!	!	!	!
.	.	.	.	16F\JJ	.	.	.	.	.
.	.	.	.	8G\L	.	.	.	.	.
!	!	!	!	!	!	!LO:N:vis=16	!	!	!
.	.	.	.	8B-\J	8cc\	8ccc\	.	.	.
.	.	.	.	8G\L	8b-/L	8bb-\L	.	.	.
.	.	.	.	8F\	8a-/	8aa-\	.	.	.
.	.	.	.	8E-\	8g/	8gg\	.	.	.
.	.	.	.	8D\J	8f/J	8ff\J	.	.	.
=26	=26	=26	=26	=26	=26	=26	=26	=26	=26
.	.	.	.	8.E-/L	8e-/L	8.ee-\L	.	1ryy	1ryy
.	.	.	.	.	8d/	.	.	.	.
.	.	.	.	16BB-/K	.	16dd\K	.	.	.
.	.	.	.	8.GG/	8e-/	8ee-\	.	.	.
.	.	.	.	.	8g/J	8gg\J	.	.	.
.	.	.	.	16EE-/Jk	.	.	.	.	.
.	.	.	.	4BB-/	8f/L	8ff\L	.	.	.
.	.	.	.	.	8d/	8dd\J	.	.	.
!	!	!	!	!	!LO:N:vis=8	!	!	!	!
.	.	.	.	4B-\	4B-/J	4b-\	.	.	.
!LO:LB:g=original	!	!	!	!	!	!	!	!	!
=27	=27	=27	=27	=27	=27	=27	=27	=27	=27
!	!	!	!LO:DY:a	!	!	!	!	!	!
8G/	.	2e-\	f	8E-\L	4.g/	4.b-\	.	1ryy	1ryy
8r	.	.	.	8D\	.	.	.	.	.
8G/	.	.	.	8E-\	.	.	.	.	.
!	!LO:DY:a	!	!	!	!	!	!	!	!
8r	p	.	.	8D\J	8a-/	8cc\	.	.	.
!	!LO:DY:a	!	!	!	!	!	!	!	!
8G/	f	4e-\	.	4E-\	8g/L	8b-\L	.	.	.
8r	.	.	.	.	8g/	8ee-\	.	.	.
8G/	.	4r	.	4r	8b-\	8dd\	.	.	.
8r	.	.	.	.	8a-/J	8cc\J	.	.	.
=28	=28	=28	=28	=28	=28	=28	=28	=28	=28
!	!	!	!	!LO:TX:t=P:problem=mixed beam	!	!	!	!	!
(8g\L	.	(8b-\L	.	8B-\L	8g/L	8b-/L	.	1ryy	1ryy
8f\	.	8a-\)	.	8B-\	8f/	8a-/	.	.	.
8e-'\)	.	8g'\	.	8BB-/	8e-/	8g/	.	.	.
8B-'\J	.	8f'\J	.	8BB-/J	8d/J	8f/J	.	.	.
!	!	!	!	!LO:TX:t=P:problem=mixed beam	!	!	!	!	!
4G/	.	4e-\	.	8E-\L	4e-/	4e-/	.	.	.
.	.	.	.	8EE-/	.	.	.	.	.
4r	.	4r	.	8GG/	4r	4r	.	.	.
.	.	.	.	8BB-/J	.	.	.	.	.
=29:|!	=29:|!	=29:|!	=29:|!	=29:|!	=29:|!	=29:|!	=29:|!	=29:|!	=29:|!
*>C	*	*>C	*	*>C	*>C	*>C	*	*>C	*>C
!	!	!	!	!	!LO:TX:a:t=P:problem=brak ostatniego taktu	!	!	!	!
4r	.	4r	.	4E-\	1ryy	4r	.	1ryy	1ryy
4B-/	.	4f\	.	4BB-/	.	4aa-\	.	.	.
4G/	.	4e-\	.	4E-\	.	4gg\	.	.	.
4r	.	4r	.	4r	.	4r	.	.	.
==	==	==	==	==	==	==	==	==	==
*-	*-	*-	*-	*-	*-	*-	*-	*-	*-
!!!system-decoration: [(s1,s2,s3,s4,s5)],[(s6,s7)]
!!!ENC: Andrzej Gręziak
!!!END: 2021-06-19
